src/images/circuits/singapore.svg

<svg width="40" height="24" viewBox="0 0 40 24" fill="none" xmlns="http://www.w3.org/2000/svg">
<path d="M37.9514 3.45315L39 14.6727C39 15.2517 38.9566 16.5292 38.7829 17.007C38.5657 17.6041 37.5343 18.7441 37.1543 18.9612C36.7743 19.1784 30.26 18.4184 29.9343 18.2012C29.6086 17.9841 29.5 16.7898 29.2286 16.4098C28.9571 16.0298 26.08 15.9212 25.7 16.1384C25.32 16.3555 24.94 17.9298 24.3429 18.0384C23.7457 18.147 19.8914 17.4412 19.5114 17.007C19.2796 16.742 19.2645 16.0181 19.3026 15.4566C19.3202 15.1968 19.153 14.955 18.8991 14.8976C18.1684 14.7326 17.1074 14.4876 16.58 14.347C15.8312 14.1473 12.6493 11.2391 11.9314 10.7727C11.851 10.7205 11.7598 10.7344 11.6873 10.7972C10.1934 12.0906 8.48458 19.7947 8.22 20.5355C7.94857 21.2955 7.51429 23.847 7.13429 23.087C6.75429 22.327 5.07143 21.2412 4.31143 20.5355C3.55143 19.8298 3.93143 18.2012 3.93143 17.6584C3.93143 17.2785 3.26666 17.1478 2.80948 17.1211C2.69272 17.1142 2.57936 17.0745 2.4895 16.9996L1.33628 16.0386C1.14377 15.8782 1.09883 15.6015 1.23234 15.3894C2.74426 12.9878 5.44739 8.68117 5.77714 8.1041C6.21143 7.34411 7.46 6.09553 8.22 6.2041C8.74718 6.27942 10.0063 7.82943 10.8861 8.93613C11.0808 9.18099 11.4492 9.18868 11.654 8.9523L14.504 5.66394C14.6672 5.4756 14.943 5.43542 15.1522 5.57086C17.4092 7.03204 21.4594 9.66045 22.1171 10.1127C22.787 10.5732 27.9675 10.9026 28.339 10.9257C28.3543 10.9266 28.366 10.9279 28.3811 10.9302C28.7668 10.9885 34.317 11.8148 34.82 11.1441C35.4714 10.2755 34.4943 6.85554 33.8971 5.06411C33.3 3.27268 34.06 1.37268 34.3314 1.04696C34.6029 0.721246 35.6343 2.18696 36.2314 2.45839C36.5636 2.60938 37.101 2.83551 37.5261 2.96413C37.7496 3.03177 37.9297 3.22061 37.9514 3.45315Z" stroke="#FF0000"/>
</svg>

<svg width="40" height="24" fill="none" xmlns="http://www.w3.org/2000/svg"><path d="M37.951 3.453 39 14.673c0 .579-.043 1.856-.217 2.334-.217.597-1.249 1.737-1.629 1.954-.38.217-6.894-.543-7.22-.76-.325-.217-.434-1.411-.705-1.791-.272-.38-3.149-.489-3.529-.272-.38.217-.76 1.792-1.357 1.9-.597.109-4.452-.597-4.832-1.031-.231-.265-.246-.989-.208-1.55a.531.531 0 0 0-.404-.56c-.73-.164-1.792-.41-2.319-.55-.749-.2-3.93-3.108-4.649-3.574-.08-.053-.171-.039-.244.024-1.494 1.294-3.202 8.998-3.467 9.738-.271.76-.706 3.312-1.086 2.552-.38-.76-2.063-1.846-2.823-2.552-.76-.705-.38-2.334-.38-2.877 0-.38-.664-.51-1.122-.537A.548.548 0 0 1 2.49 17l-1.153-.961a.498.498 0 0 1-.104-.65c1.512-2.401 4.215-6.708 4.545-7.285.434-.76 1.683-2.008 2.443-1.9.527.075 1.786 1.625 2.666 2.732a.499.499 0 0 0 .768.016l2.85-3.288a.498.498 0 0 1 .648-.093c2.257 1.461 6.307 4.09 6.965 4.542.67.46 5.85.79 6.222.813.015 0 .027.002.042.004.386.059 5.936.885 6.439.214.651-.869-.326-4.288-.923-6.08-.597-1.791.163-3.691.434-4.017.272-.326 1.303 1.14 1.9 1.411.333.151.87.378 1.295.506a.586.586 0 0 1 .425.49Z" stroke="red"/></svg>
